X: 26
T: Cantiga 26: Non é gran cousa
N: 24 in To
B:Cantigas de Santa Maria
F:http://www.pbm.com/~lindahl/cantigas/facsimiles/E/097small.html
F:http://www.pbm.com/~lindahl/cantigas/facsimiles/To/bob023small.gif
F:http://www.pbm.com/~lindahl/cantigas/facsimiles/To/bob024small.gif
Z:Ali Corbin <ali.corbin:gmail.com>
M: 4/4
L: 1/4
Q: 1/4=300
K: D Aeolian
V:1
%Staff 1
%%MIDI program 74
%
   G |G2 E2 | G2 G2|(AG)(FE)|D4| E2 C2|D2 F2|(F3G|F4)|
w:Non é gran cou-sa  se* sa-*be bon jo-y- zo  dar**
  A2 (AB)|A2 (AG)|(FE) D2| C2  D  E |F2 G2|E2 F2|D3
w:a   Ma-*dre do*  que* o mun-do tod' á de jo-i- gar.
%
   A | A2  A2| A2 (AB)| A3  G|F2 (GA)|(FEDE) |F3
w:Mui gran ra-zon  é*  que sá-bia de-*rei-*** to
    A | A2   A2   |A2 (AB) |A3    G|F2 (GA)|(FEDE) |F4 |
w:quen Deus troux' en  seu* corp' e de seu* pei-*** to
  G2  E2| G2  G  G |(AG) (FE) |D4 |E2  C2| D2 F2|(F3G|F4)|
w:ma-men-tou, e del  de-*spei-*to  nun-ca foi fi-llar;**
  A2 (AB)|A2 (AG)|(FE) D2| C2   D  E |F2 G2 |E2 (FE) |D4 ||
w:po-ren* de sen*  me* so-spei-to que a quis a-  von-*dar.
%

